X: 1
T: Marion Egan's
M: 4/4
L: 1/8
R: reel
K: Dmaj
|:E|FAAB AFDF|EGFE DB,~B,2|FAAB AF(3FGA|(3dcB AF EFDE|
FAAB AFDF|EGFE DB,~B,2|A,B,DE (3FGA BF|1AFEF D3:|2AFEF D2(3FGA||
|:~d3e dBAd|BdAd BAFA|~d3e dBAF|E2fe dBAB|
~d3e dBAd|BdAd BAFA|D2(3FGA dBAF|1EDFE D2(3FGA:|2EDFE D3||
